svgs/sharp-thin/school.svg

<svg xmlns="http://www.w3.org/2000/svg" viewBox="0 0 640 512"><!--! Font Awesome Pro 6.6.0 by @fontawesome - https://fontawesome.com License - https://fontawesome.com/license (Commercial License) Copyright 2024 Fonticons, Inc. --><path d="M16 112l144 0L320 0 480 112l144 0 16 0 0 16 0 368 0 16-16 0-240 0-16 0-96 0-16 0L16 512 0 512l0-16L0 128l0-16 16 0zM368 496l0-112c0-26.5-21.5-48-48-48s-48 21.5-48 48l0 112 96 0zm16 0l240 0 0-368-144 0-5 0-4.1-2.9L320 19.5 169.2 125.1 165 128l-5 0L16 128l0 368 240 0 0-112c0-35.3 28.7-64 64-64s64 28.7 64 64l0 112zM64 192l8 0 64 0 8 0 0 8 0 80 0 8-8 0-64 0-8 0 0-8 0-80 0-8zm16 16l0 64 48 0 0-64-48 0zm424-16l64 0 8 0 0 8 0 80 0 8-8 0-64 0-8 0 0-8 0-80 0-8 8 0zm8 16l0 64 48 0 0-64-48 0zM320 240a64 64 0 1 0 0-128 64 64 0 1 0 0 128zm0-144a80 80 0 1 1 0 160 80 80 0 1 1 0-160zm8 48l0 24 16 0 8 0 0 16-8 0-24 0-8 0 0-8 0-32 0-8 16 0 0 8zM64 320l8 0 64 0 8 0 0 8 0 80 0 8-8 0-64 0-8 0 0-8 0-80 0-8zm16 16l0 64 48 0 0-64-48 0zm424-16l64 0 8 0 0 8 0 80 0 8-8 0-64 0-8 0 0-8 0-80 0-8 8 0zm8 80l48 0 0-64-48 0 0 64z"/></svg>

<svg xmlns="http://www.w3.org/2000/svg" viewBox="0 0 640 512"><!--! Font Awesome Pro 6.5.2 by @fontawesome - https://fontawesome.com License - https://fontawesome.com/license (Commercial License) Copyright 2024 Fonticons, Inc. --><path d="M16 112H160L320 0 480 112H624h16v16V496v16H624 384 368 272 256 16 0V496 128 112H16zM368 496V384c0-26.5-21.5-48-48-48s-48 21.5-48 48V496h96zm16 0H624V128H480h-5l-4.1-2.9L320 19.5 169.2 125.1 165 128h-5H16V496H256V384c0-35.3 28.7-64 64-64s64 28.7 64 64V496zM64 192h8 64 8v8 80 8h-8H72 64v-8V200v-8zm16 16v64h48V208H80zm424-16h64 8v8 80 8h-8H504h-8v-8V200v-8h8zm8 16v64h48V208H512zM320 240a64 64 0 1 0 0-128 64 64 0 1 0 0 128zm0-144a80 80 0 1 1 0 160 80 80 0 1 1 0-160zm8 48v24h16 8v16h-8H320h-8v-8V144v-8h16v8zM64 320h8 64 8v8 80 8h-8H72 64v-8V328v-8zm16 16v64h48V336H80zm424-16h64 8v8 80 8h-8H504h-8v-8V328v-8h8zm8 80h48V336H512v64z"/></svg>
